projects/plugins/jetpack/images/get-apps-qr-code.svg

<svg width="100" height="100" fill="none" xmlns="http://www.w3.org/2000/svg"><path d="M0 0h4v4H0V0Zm4 0h4v4H4V0Zm4 0h4v4H8V0Zm4 0h4v4h-4V0Zm4 0h4v4h-4V0Zm4 0h4v4h-4V0Zm4 0h4v4h-4V0Zm8 0h4v4h-4V0Zm20 0h4v4h-4V0Zm12 0h4v4h-4V0Zm8 0h4v4h-4V0Zm4 0h4v4h-4V0Zm4 0h4v4h-4V0Zm4 0h4v4h-4V0Zm4 0h4v4h-4V0Zm4 0h4v4h-4V0Zm4 0h4v4h-4V0ZM0 4h4v4H0V4Zm24 0h4v4h-4V4Zm8 0h4v4h-4V4Zm8 0h4v4h-4V4Zm4 0h4v4h-4V4Zm4 0h4v4h-4V4Zm8 0h4v4h-4V4Zm4 0h4v4h-4V4Zm4 0h4v4h-4V4Zm8 0h4v4h-4V4Zm24 0h4v4h-4V4ZM0 8h4v4H0V8Zm8 0h4v4H8V8Zm4 0h4v4h-4V8Zm4 0h4v4h-4V8Zm8 0h4v4h-4V8Zm8 0h4v4h-4V8Zm8 0h4v4h-4V8Zm4 0h4v4h-4V8Zm4 0h4v4h-4V8Zm4 0h4v4h-4V8Zm4 0h4v4h-4V8Zm8 0h4v4h-4V8Zm8 0h4v4h-4V8Zm8 0h4v4h-4V8Zm4 0h4v4h-4V8Zm4 0h4v4h-4V8Zm8 0h4v4h-4V8ZM0 12h4v4H0v-4Zm8 0h4v4H8v-4Zm4 0h4v4h-4v-4Zm4 0h4v4h-4v-4Zm8 0h4v4h-4v-4Zm8 0h4v4h-4v-4Zm8 0h4v4h-4v-4Zm12 0h4v4h-4v-4Zm4 0h4v4h-4v-4Zm4 0h4v4h-4v-4Zm12 0h4v4h-4v-4Zm8 0h4v4h-4v-4Zm4 0h4v4h-4v-4Zm4 0h4v4h-4v-4Zm8 0h4v4h-4v-4ZM0 16h4v4H0v-4Zm8 0h4v4H8v-4Zm4 0h4v4h-4v-4Zm4 0h4v4h-4v-4Zm8 0h4v4h-4v-4Zm8 0h4v4h-4v-4Zm4 0h4v4h-4v-4Zm12 0h4v4h-4v-4Zm8 0h4v4h-4v-4Zm16 0h4v4h-4v-4Zm8 0h4v4h-4v-4Zm4 0h4v4h-4v-4Zm4 0h4v4h-4v-4Zm8 0h4v4h-4v-4ZM0 20h4v4H0v-4Zm24 0h4v4h-4v-4Zm16 0h4v4h-4v-4Zm4 0h4v4h-4v-4Zm8 0h4v4h-4v-4Zm20 0h4v4h-4v-4Zm24 0h4v4h-4v-4ZM0 24h4v4H0v-4Zm4 0h4v4H4v-4Zm4 0h4v4H8v-4Zm4 0h4v4h-4v-4Zm4 0h4v4h-4v-4Zm4 0h4v4h-4v-4Zm4 0h4v4h-4v-4Zm8 0h4v4h-4v-4Zm8 0h4v4h-4v-4Zm8 0h4v4h-4v-4Zm8 0h4v4h-4v-4Zm8 0h4v4h-4v-4Zm8 0h4v4h-4v-4Zm4 0h4v4h-4v-4Zm4 0h4v4h-4v-4Zm4 0h4v4h-4v-4Zm4 0h4v4h-4v-4Zm4 0h4v4h-4v-4Zm4 0h4v4h-4v-4Zm-64 4h4v4h-4v-4Zm4 0h4v4h-4v-4Zm16 0h4v4h-4v-4Zm4 0h4v4h-4v-4Zm8 0h4v4h-4v-4ZM4 32h4v4H4v-4Zm4 0h4v4H8v-4Zm8 0h4v4h-4v-4Zm8 0h4v4h-4v-4Zm4 0h4v4h-4v-4Zm16 0h4v4h-4v-4Zm12 0h4v4h-4v-4Zm4 0h4v4h-4v-4Zm4 0h4v4h-4v-4Zm8 0h4v4h-4v-4Zm8 0h4v4h-4v-4Zm4 0h4v4h-4v-4Zm4 0h4v4h-4v-4Zm4 0h4v4h-4v-4Zm4 0h4v4h-4v-4ZM4 36h4v4H4v-4Zm8 0h4v4h-4v-4Zm8 0h4v4h-4v-4Zm8 0h4v4h-4v-4Zm4 0h4v4h-4v-4Zm4 0h4v4h-4v-4Zm4 0h4v4h-4v-4Zm4 0h4v4h-4v-4Zm12 0h4v4h-4v-4Zm4 0h4v4h-4v-4Zm8 0h4v4h-4v-4Zm4 0h4v4h-4v-4Zm24 0h4v4h-4v-4ZM4 40h4v4H4v-4Zm4 0h4v4H8v-4Zm4 0h4v4h-4v-4Zm12 0h4v4h-4v-4Zm12 0h4v4h-4v-4Zm8 0h4v4h-4v-4Zm8 0h4v4h-4v-4Zm12 0h4v4h-4v-4Zm4 0h4v4h-4v-4Zm8 0h4v4h-4v-4Zm12 0h4v4h-4v-4Zm4 0h4v4h-4v-4Zm4 0h4v4h-4v-4ZM0 44h4v4H0v-4Zm4 0h4v4H4v-4Zm8 0h4v4h-4v-4Zm4 0h4v4h-4v-4Zm4 0h4v4h-4v-4Zm28 0h4v4h-4v-4Zm12 0h4v4h-4v-4Zm12 0h4v4h-4v-4Zm4 0h4v4h-4v-4ZM4 48h4v4H4v-4Zm4 0h4v4H8v-4Zm8 0h4v4h-4v-4Zm4 0h4v4h-4v-4Zm4 0h4v4h-4v-4Zm12 0h4v4h-4v-4Zm4 0h4v4h-4v-4Zm8 0h4v4h-4v-4Zm20 0h4v4h-4v-4Zm4 0h4v4h-4v-4Zm12 0h4v4h-4v-4Zm8 0h4v4h-4v-4Zm4 0h4v4h-4v-4Zm-80 4h4v4h-4v-4Zm16 0h4v4h-4v-4Zm8 0h4v4h-4v-4Zm4 0h4v4h-4v-4Zm8 0h4v4h-4v-4Zm12 0h4v4h-4v-4Zm4 0h4v4h-4v-4Zm4 0h4v4h-4v-4Zm12 0h4v4h-4v-4Zm8 0h4v4h-4v-4Zm4 0h4v4h-4v-4ZM0 56h4v4H0v-4Zm20 0h4v4h-4v-4Zm4 0h4v4h-4v-4Zm4 0h4v4h-4v-4Zm4 0h4v4h-4v-4Zm8 0h4v4h-4v-4Zm4 0h4v4h-4v-4Zm20 0h4v4h-4v-4Zm4 0h4v4h-4v-4Zm20 0h4v4h-4v-4Zm4 0h4v4h-4v-4Zm4 0h4v4h-4v-4ZM4 60h4v4H4v-4Zm4 0h4v4H8v-4Zm24 0h4v4h-4v-4Zm8 0h4v4h-4v-4Zm8 0h4v4h-4v-4Zm8 0h4v4h-4v-4Zm4 0h4v4h-4v-4Zm20 0h4v4h-4v-4Zm12 0h4v4h-4v-4Zm4 0h4v4h-4v-4ZM0 64h4v4H0v-4Zm16 0h4v4h-4v-4Zm8 0h4v4h-4v-4Zm8 0h4v4h-4v-4Zm8 0h4v4h-4v-4Zm24 0h4v4h-4v-4Zm4 0h4v4h-4v-4Zm4 0h4v4h-4v-4Zm4 0h4v4h-4v-4Zm4 0h4v4h-4v-4Zm-48 4h4v4h-4v-4Zm12 0h4v4h-4v-4Zm20 0h4v4h-4v-4Zm16 0h4v4h-4v-4Zm4 0h4v4h-4v-4Zm8 0h4v4h-4v-4Zm4 0h4v4h-4v-4ZM0 72h4v4H0v-4Zm4 0h4v4H4v-4Zm4 0h4v4H8v-4Zm4 0h4v4h-4v-4Zm4 0h4v4h-4v-4Zm4 0h4v4h-4v-4Zm4 0h4v4h-4v-4Zm8 0h4v4h-4v-4Zm4 0h4v4h-4v-4Zm8 0h4v4h-4v-4Zm12 0h4v4h-4v-4Zm4 0h4v4h-4v-4Zm4 0h4v4h-4v-4Zm8 0h4v4h-4v-4Zm8 0h4v4h-4v-4Zm4 0h4v4h-4v-4Zm4 0h4v4h-4v-4Zm4 0h4v4h-4v-4Zm4 0h4v4h-4v-4ZM0 76h4v4H0v-4Zm24 0h4v4h-4v-4Zm12 0h4v4h-4v-4Zm8 0h4v4h-4v-4Zm8 0h4v4h-4v-4Zm4 0h4v4h-4v-4Zm8 0h4v4h-4v-4Zm16 0h4v4h-4v-4Zm16 0h4v4h-4v-4ZM0 80h4v4H0v-4Zm8 0h4v4H8v-4Zm4 0h4v4h-4v-4Zm4 0h4v4h-4v-4Zm8 0h4v4h-4v-4Zm8 0h4v4h-4v-4Zm4 0h4v4h-4v-4Zm16 0h4v4h-4v-4Zm4 0h4v4h-4v-4Zm8 0h4v4h-4v-4Zm4 0h4v4h-4v-4Zm4 0h4v4h-4v-4Zm4 0h4v4h-4v-4Zm4 0h4v4h-4v-4Zm12 0h4v4h-4v-4ZM0 84h4v4H0v-4Zm8 0h4v4H8v-4Zm4 0h4v4h-4v-4Zm4 0h4v4h-4v-4Zm8 0h4v4h-4v-4Zm12 0h4v4h-4v-4Zm4 0h4v4h-4v-4Zm4 0h4v4h-4v-4Zm4 0h4v4h-4v-4Zm8 0h4v4h-4v-4Zm12 0h4v4h-4v-4Zm8 0h4v4h-4v-4Zm4 0h4v4h-4v-4Zm4 0h4v4h-4v-4Zm8 0h4v4h-4v-4ZM0 88h4v4H0v-4Zm8 0h4v4H8v-4Zm4 0h4v4h-4v-4Zm4 0h4v4h-4v-4Zm8 0h4v4h-4v-4Zm8 0h4v4h-4v-4Zm4 0h4v4h-4v-4Zm20 0h4v4h-4v-4Zm8 0h4v4h-4v-4Zm16 0h4v4h-4v-4Zm4 0h4v4h-4v-4Zm12 0h4v4h-4v-4ZM0 92h4v4H0v-4Zm24 0h4v4h-4v-4Zm8 0h4v4h-4v-4Zm4 0h4v4h-4v-4Zm4 0h4v4h-4v-4Zm4 0h4v4h-4v-4Zm4 0h4v4h-4v-4Zm12 0h4v4h-4v-4Zm4 0h4v4h-4v-4Zm8 0h4v4h-4v-4Zm8 0h4v4h-4v-4Zm12 0h4v4h-4v-4ZM0 96h4v4H0v-4Zm4 0h4v4H4v-4Zm4 0h4v4H8v-4Zm4 0h4v4h-4v-4Zm4 0h4v4h-4v-4Zm4 0h4v4h-4v-4Zm4 0h4v4h-4v-4Zm20 0h4v4h-4v-4Zm4 0h4v4h-4v-4Zm4 0h4v4h-4v-4Zm4 0h4v4h-4v-4Zm4 0h4v4h-4v-4Zm4 0h4v4h-4v-4Zm4 0h4v4h-4v-4Zm24 0h4v4h-4v-4Zm4 0h4v4h-4v-4Z" fill="#000"/></svg>

<svg width="100" height="100" viewBox="0 0 100 100" fill="none" xmlns="http://www.w3.org/2000/svg">
<path d="M0 0H4V4H0V0ZM4 0H8V4H4V0ZM8 0H12V4H8V0ZM12 0H16V4H12V0ZM16 0H20V4H16V0ZM20 0H24V4H20V0ZM24 0H28V4H24V0ZM32 0H36V4H32V0ZM52 0H56V4H52V0ZM64 0H68V4H64V0ZM72 0H76V4H72V0ZM76 0H80V4H76V0ZM80 0H84V4H80V0ZM84 0H88V4H84V0ZM88 0H92V4H88V0ZM92 0H96V4H92V0ZM96 0H100V4H96V0ZM0 4H4V8H0V4ZM24 4H28V8H24V4ZM32 4H36V8H32V4ZM40 4H44V8H40V4ZM44 4H48V8H44V4ZM48 4H52V8H48V4ZM56 4H60V8H56V4ZM60 4H64V8H60V4ZM64 4H68V8H64V4ZM72 4H76V8H72V4ZM96 4H100V8H96V4ZM0 8H4V12H0V8ZM8 8H12V12H8V8ZM12 8H16V12H12V8ZM16 8H20V12H16V8ZM24 8H28V12H24V8ZM32 8H36V12H32V8ZM40 8H44V12H40V8ZM44 8H48V12H44V8ZM48 8H52V12H48V8ZM52 8H56V12H52V8ZM56 8H60V12H56V8ZM64 8H68V12H64V8ZM72 8H76V12H72V8ZM80 8H84V12H80V8ZM84 8H88V12H84V8ZM88 8H92V12H88V8ZM96 8H100V12H96V8ZM0 12H4V16H0V12ZM8 12H12V16H8V12ZM12 12H16V16H12V12ZM16 12H20V16H16V12ZM24 12H28V16H24V12ZM32 12H36V16H32V12ZM40 12H44V16H40V12ZM52 12H56V16H52V12ZM56 12H60V16H56V12ZM60 12H64V16H60V12ZM72 12H76V16H72V12ZM80 12H84V16H80V12ZM84 12H88V16H84V12ZM88 12H92V16H88V12ZM96 12H100V16H96V12ZM0 16H4V20H0V16ZM8 16H12V20H8V16ZM12 16H16V20H12V16ZM16 16H20V20H16V16ZM24 16H28V20H24V16ZM32 16H36V20H32V16ZM36 16H40V20H36V16ZM48 16H52V20H48V16ZM56 16H60V20H56V16ZM72 16H76V20H72V16ZM80 16H84V20H80V16ZM84 16H88V20H84V16ZM88 16H92V20H88V16ZM96 16H100V20H96V16ZM0 20H4V24H0V20ZM24 20H28V24H24V20ZM40 20H44V24H40V20ZM44 20H48V24H44V20ZM52 20H56V24H52V20ZM72 20H76V24H72V20ZM96 20H100V24H96V20ZM0 24H4V28H0V24ZM4 24H8V28H4V24ZM8 24H12V28H8V24ZM12 24H16V28H12V24ZM16 24H20V28H16V24ZM20 24H24V28H20V24ZM24 24H28V28H24V24ZM32 24H36V28H32V24ZM40 24H44V28H40V24ZM48 24H52V28H48V24ZM56 24H60V28H56V24ZM64 24H68V28H64V24ZM72 24H76V28H72V24ZM76 24H80V28H76V24ZM80 24H84V28H80V24ZM84 24H88V28H84V24ZM88 24H92V28H88V24ZM92 24H96V28H92V24ZM96 24H100V28H96V24ZM32 28H36V32H32V28ZM36 28H40V32H36V28ZM52 28H56V32H52V28ZM56 28H60V32H56V28ZM64 28H68V32H64V28ZM4 32H8V36H4V32ZM8 32H12V36H8V32ZM16 32H20V36H16V32ZM24 32H28V36H24V32ZM28 32H32V36H28V32ZM44 32H48V36H44V32ZM56 32H60V36H56V32ZM60 32H64V36H60V32ZM64 32H68V36H64V32ZM72 32H76V36H72V32ZM80 32H84V36H80V32ZM84 32H88V36H84V32ZM88 32H92V36H88V32ZM92 32H96V36H92V32ZM96 32H100V36H96V32ZM4 36H8V40H4V36ZM12 36H16V40H12V36ZM20 36H24V40H20V36ZM28 36H32V40H28V36ZM32 36H36V40H32V36ZM36 36H40V40H36V36ZM40 36H44V40H40V36ZM44 36H48V40H44V36ZM56 36H60V40H56V36ZM60 36H64V40H60V36ZM68 36H72V40H68V36ZM72 36H76V40H72V36ZM96 36H100V40H96V36ZM4 40H8V44H4V40ZM8 40H12V44H8V40ZM12 40H16V44H12V40ZM24 40H28V44H24V40ZM36 40H40V44H36V40ZM44 40H48V44H44V40ZM52 40H56V44H52V40ZM64 40H68V44H64V40ZM68 40H72V44H68V40ZM76 40H80V44H76V40ZM88 40H92V44H88V40ZM92 40H96V44H92V40ZM96 40H100V44H96V40ZM0 44H4V48H0V44ZM4 44H8V48H4V44ZM12 44H16V48H12V44ZM16 44H20V48H16V44ZM20 44H24V48H20V44ZM48 44H52V48H48V44ZM60 44H64V48H60V44ZM72 44H76V48H72V44ZM76 44H80V48H76V44ZM4 48H8V52H4V48ZM8 48H12V52H8V48ZM16 48H20V52H16V48ZM20 48H24V52H20V48ZM24 48H28V52H24V48ZM36 48H40V52H36V48ZM40 48H44V52H40V48ZM48 48H52V52H48V48ZM68 48H72V52H68V48ZM72 48H76V52H72V48ZM84 48H88V52H84V48ZM92 48H96V52H92V48ZM96 48H100V52H96V48ZM16 52H20V56H16V52ZM32 52H36V56H32V52ZM40 52H44V56H40V52ZM44 52H48V56H44V52ZM52 52H56V56H52V52ZM64 52H68V56H64V52ZM68 52H72V56H68V52ZM72 52H76V56H72V52ZM84 52H88V56H84V52ZM92 52H96V56H92V52ZM96 52H100V56H96V52ZM0 56H4V60H0V56ZM20 56H24V60H20V56ZM24 56H28V60H24V56ZM28 56H32V60H28V56ZM32 56H36V60H32V56ZM40 56H44V60H40V56ZM44 56H48V60H44V56ZM64 56H68V60H64V56ZM68 56H72V60H68V56ZM88 56H92V60H88V56ZM92 56H96V60H92V56ZM96 56H100V60H96V56ZM4 60H8V64H4V60ZM8 60H12V64H8V60ZM32 60H36V64H32V60ZM40 60H44V64H40V60ZM48 60H52V64H48V60ZM56 60H60V64H56V60ZM60 60H64V64H60V60ZM80 60H84V64H80V60ZM92 60H96V64H92V60ZM96 60H100V64H96V60ZM0 64H4V68H0V64ZM16 64H20V68H16V64ZM24 64H28V68H24V64ZM32 64H36V68H32V64ZM40 64H44V68H40V64ZM64 64H68V68H64V64ZM68 64H72V68H68V64ZM72 64H76V68H72V64ZM76 64H80V68H76V64ZM80 64H84V68H80V64ZM32 68H36V72H32V68ZM44 68H48V72H44V68ZM64 68H68V72H64V68ZM80 68H84V72H80V68ZM84 68H88V72H84V68ZM92 68H96V72H92V68ZM96 68H100V72H96V68ZM0 72H4V76H0V72ZM4 72H8V76H4V72ZM8 72H12V76H8V72ZM12 72H16V76H12V72ZM16 72H20V76H16V72ZM20 72H24V76H20V72ZM24 72H28V76H24V72ZM32 72H36V76H32V72ZM36 72H40V76H36V72ZM44 72H48V76H44V72ZM56 72H60V76H56V72ZM60 72H64V76H60V72ZM64 72H68V76H64V72ZM72 72H76V76H72V72ZM80 72H84V76H80V72ZM84 72H88V76H84V72ZM88 72H92V76H88V72ZM92 72H96V76H92V72ZM96 72H100V76H96V72ZM0 76H4V80H0V76ZM24 76H28V80H24V76ZM36 76H40V80H36V76ZM44 76H48V80H44V76ZM52 76H56V80H52V76ZM56 76H60V80H56V76ZM64 76H68V80H64V76ZM80 76H84V80H80V76ZM96 76H100V80H96V76ZM0 80H4V84H0V80ZM8 80H12V84H8V80ZM12 80H16V84H12V80ZM16 80H20V84H16V80ZM24 80H28V84H24V80ZM32 80H36V84H32V80ZM36 80H40V84H36V80ZM52 80H56V84H52V80ZM56 80H60V84H56V80ZM64 80H68V84H64V80ZM68 80H72V84H68V80ZM72 80H76V84H72V80ZM76 80H80V84H76V80ZM80 80H84V84H80V80ZM92 80H96V84H92V80ZM0 84H4V88H0V84ZM8 84H12V88H8V84ZM12 84H16V88H12V84ZM16 84H20V88H16V84ZM24 84H28V88H24V84ZM36 84H40V88H36V84ZM40 84H44V88H40V84ZM44 84H48V88H44V84ZM48 84H52V88H48V84ZM56 84H60V88H56V84ZM68 84H72V88H68V84ZM76 84H80V88H76V84ZM80 84H84V88H80V84ZM84 84H88V88H84V84ZM92 84H96V88H92V84ZM0 88H4V92H0V88ZM8 88H12V92H8V88ZM12 88H16V92H12V88ZM16 88H20V92H16V88ZM24 88H28V92H24V88ZM32 88H36V92H32V88ZM36 88H40V92H36V88ZM56 88H60V92H56V88ZM64 88H68V92H64V88ZM80 88H84V92H80V88ZM84 88H88V92H84V88ZM96 88H100V92H96V88ZM0 92H4V96H0V92ZM24 92H28V96H24V92ZM32 92H36V96H32V92ZM36 92H40V96H36V92ZM40 92H44V96H40V92ZM44 92H48V96H44V92ZM48 92H52V96H48V92ZM60 92H64V96H60V92ZM64 92H68V96H64V92ZM72 92H76V96H72V92ZM80 92H84V96H80V92ZM92 92H96V96H92V92ZM0 96H4V100H0V96ZM4 96H8V100H4V96ZM8 96H12V100H8V96ZM12 96H16V100H12V96ZM16 96H20V100H16V96ZM20 96H24V100H20V96ZM24 96H28V100H24V96ZM44 96H48V100H44V96ZM48 96H52V100H48V96ZM52 96H56V100H52V96ZM56 96H60V100H56V96ZM60 96H64V100H60V96ZM64 96H68V100H64V96ZM68 96H72V100H68V96ZM92 96H96V100H92V96ZM96 96H100V100H96V96Z" fill="black"/>
</svg>
